icon-themes/breeze_svg/cmd/32/movepagelast.svg

<svg viewBox="0 0 32 32" xmlns="http://www.w3.org/2000/svg"><path d="m4.7070312 8s-.7100312.6539688-.7070312.6679688l12 11.3320312 12-11.3320312-.707031-.6679688-11.292969 10.664062zm-.7070312 14v1h24v-1z" fill="#4d4d4d"/></svg>

<svg xmlns="http://www.w3.org/2000/svg" viewBox="0 0 32 32">
 <path 
     style="fill:#4d4d4d" 
     d="M 4.7070312 8 C 4.7070312 8 3.997 8.6539688 4 8.6679688 L 16 20 L 28 8.6679688 L 27.292969 8 L 16 18.664062 L 4.7070312 8 z M 4 22 L 4 23 L 28 23 L 28 22 L 4 22 z "
     />
</svg>
